packages/core/src/svgs/tokens/mono/TRVL.svg

<svg width="24" height="24" viewBox="0 0 24 24" fill="none" xmlns="http://www.w3.org/2000/svg">
<path d="M22 12C22 12.625 21.6875 15.1374 18.2437 15.1374C15.8 15.1374 13.8938 13.6376 12.8375 12.7812C12.8286 12.7742 12.8177 12.7703 12.8063 12.7703C12.7949 12.7703 12.7838 12.7742 12.775 12.7812C12.7643 12.7888 12.7572 12.8002 12.7548 12.813C12.7524 12.826 12.7553 12.8391 12.7626 12.8501C13.625 13.9124 15.125 15.7937 15.125 18.2499C15.125 20.0313 12.75 22 12 22V12H22Z" fill="white"/>
<path d="M5.74997 8.87496C8.19371 8.87496 10.0938 10.3686 11.1561 11.2312C11.161 11.2365 11.1666 11.2407 11.1731 11.2436C11.1796 11.2466 11.1866 11.2482 11.1938 11.2482C11.2008 11.2482 11.2078 11.2466 11.2143 11.2436C11.2207 11.2407 11.2264 11.2365 11.2312 11.2312C11.24 11.2219 11.245 11.2097 11.245 11.1968C11.245 11.184 11.24 11.1717 11.2312 11.1624C10.3686 10.1 8.86871 8.19997 8.86871 5.74997C8.86871 2 11.6874 2 11.9999 2V11.9999H2C2 11.6874 2 8.87496 5.74997 8.87496Z" fill="white"/>
</svg>

<svg xmlns="http://www.w3.org/2000/svg" width="24" height="24" fill="none" viewBox="0 0 24 24">
    <path fill="#fff" d="M22 12c0 .625-.312 3.137-3.756 3.137-2.444 0-4.35-1.5-5.406-2.356a.05.05 0 0 0-.063 0 .05.05 0 0 0-.012.07c.862 1.061 2.362 2.943 2.362 5.399C15.125 20.03 12.75 22 12 22V12zM5.75 8.875c2.444 0 4.344 1.494 5.406 2.356a.05.05 0 0 0 .038.017.05.05 0 0 0 .037-.017.05.05 0 0 0 0-.069C10.37 10.1 8.87 8.2 8.87 5.75 8.869 2 11.687 2 11.999 2v10H2c0-.313 0-3.125 3.75-3.125"/>
</svg>
